X: 465
T: It Would Not Do At All
N:"Lively" "collected by J.O'Neill"
N:Irish title: ni .deunfai.d se air bi.t
B:O'Neill's 465
Z:Transcribed by henrik.norbeck@mailbox.swipnet.se
M:C
L:1/8
K:A
c>d | .e.f.g.e .f.d.e.d | .c.A.B.G E3 D | CDEF GABG | ABcd e3 c/>d/ |
efge aged | cedB A2 BG | EFGA BGED | EAAA A2 ||
E2 | ABcd e3 f | gedc B2 ed | cBAc BAGA | BGEE E3 E |
ABcd e^def | gfge a2 ef | gedB cedB | cAAA A2 ||


